// Amplitude shaping creates "ducking" sound, for drum pairs.
// Innermost modulator varies frequency of the two sub-beats.
// The sawtooth LFO wave extends rhythm and sound a bit more.
'bpm=140*2
'strength=30
Wtri f0[
//	Wsaw f$bpm/240/2 a$strength p1/2
	Weto f$bpm/240/2 a$strength*2
] p[
	Rxpe mf f$bpm/120 a$strength*(240/$bpm)/2.r$strength*(240/$bpm)[
		Whsi p1/4+1/2
	]
] a1/4.r1[
	Rsqe mf f$bpm/120
] t30
